; generated by Slic3r 1.3.0 on 2024-10-26 at 13:42:08

; external perimeters extrusion width = 0.55mm (4.37mm^3/s)
; perimeters extrusion width = 0.70mm (11.44mm^3/s)
; infill extrusion width = 0.62mm (13.45mm^3/s)
; solid infill extrusion width = 0.70mm (3.81mm^3/s)
; top infill extrusion width = 0.70mm (2.86mm^3/s)

M107
M104 S200 ; set temperature
G28 ; home all axes
G1 Z5 F5000 ; lift nozzle

; Filament gcode

M109 S200 ; set temperature and wait for it to be reached
G21 ; set units to millimeters
G90 ; use absolute coordinates
M82 ; use absolute distances for extrusion
G92 E0
G1 Z0.350 F7800.000
G1 E-2.00000 F2400.00000
G92 E0
G1 X71.170 Y71.141 F7800.000
G1 E2.00000 F2400.00000
G1 F1800
G1 X71.777 Y70.578 E2.02564
G1 X72.225 Y70.210 E2.04358
G1 X72.691 Y69.865 E2.06151
G1 X73.174 Y69.543 E2.07944
G1 X73.671 Y69.247 E2.09737
G1 X74.488 Y68.828 E2.12578
G1 X75.012 Y68.601 E2.14345
G1 X75.555 Y68.397 E2.16139
G1 X76.107 Y68.220 E2.17932
G1 X76.666 Y68.071 E2.19723
G1 X77.479 Y67.907 E2.22290
G1 X78.053 Y67.826 E2.24083
G1 X78.631 Y67.775 E2.25877
G1 X79.375 Y67.750 E2.28181
G1 X120.620 Y67.750 E3.55798
G1 X121.658 Y67.797 E3.59012
G1 X122.233 Y67.863 E3.60805
G1 X122.805 Y67.957 E3.62600
G1 X123.372 Y68.080 E3.64394
G1 X123.932 Y68.231 E3.66188
G1 X124.483 Y68.410 E3.67980
G1 X125.025 Y68.616 E3.69774
G1 X125.556 Y68.849 E3.71568
G1 X126.074 Y69.107 E3.73359
G1 X126.579 Y69.392 E3.75154
G1 X127.070 Y69.701 E3.76948
G1 X127.544 Y70.034 E3.78741
G1 X128.001 Y70.391 E3.80534
G1 X128.439 Y70.770 E3.82327
G1 X128.859 Y71.170 E3.84121
G1 X129.423 Y71.778 E3.86689
G1 X129.790 Y72.226 E3.88479
G1 X130.136 Y72.692 E3.90275
G1 X130.457 Y73.175 E3.92070
G1 X130.753 Y73.671 E3.93859
G1 X131.168 Y74.481 E3.96673
G1 X131.399 Y75.012 E3.98467
G1 X131.603 Y75.555 E4.00260
G1 X131.848 Y76.347 E4.02824
G1 X131.985 Y76.911 E4.04622
G1 X132.093 Y77.479 E4.06411
G1 X132.174 Y78.054 E4.08207
G1 X132.225 Y78.631 E4.09998
G1 X132.250 Y79.375 E4.12302
G1 X132.250 Y120.620 E5.39919
G1 X132.203 Y121.658 E5.43135
G1 X132.137 Y122.234 E5.44929
G1 X132.043 Y122.806 E5.46722
G1 X131.920 Y123.372 E5.48515
G1 X131.769 Y123.932 E5.50309
G1 X131.590 Y124.483 E5.52102
G1 X131.384 Y125.025 E5.53895
G1 X131.151 Y125.556 E5.55688
G1 X130.892 Y126.074 E5.57482
G1 X130.608 Y126.579 E5.59275
G1 X130.299 Y127.070 E5.61069
G1 X129.966 Y127.544 E5.62862
G1 X129.609 Y128.001 E5.64655
G1 X129.230 Y128.439 E5.66448
G1 X128.830 Y128.859 E5.68242
G1 X128.223 Y129.422 E5.70806
G1 X127.775 Y129.790 E5.72600
G1 X127.309 Y130.135 E5.74393
G1 X126.826 Y130.457 E5.76186
G1 X126.329 Y130.753 E5.77980
G1 X125.511 Y131.172 E5.80821
G1 X124.988 Y131.399 E5.82587
G1 X124.445 Y131.603 E5.84381
G1 X123.893 Y131.780 E5.86173
G1 X123.333 Y131.929 E5.87968
G1 X122.521 Y132.093 E5.90532
G1 X121.947 Y132.174 E5.92325
G1 X121.369 Y132.225 E5.94119
G1 X120.625 Y132.250 E5.96423
G1 X79.380 Y132.250 E7.24040
G1 X78.342 Y132.203 E7.27256
G1 X77.766 Y132.137 E7.29050
G1 X77.195 Y132.043 E7.30841
G1 X76.628 Y131.920 E7.32634
G1 X76.068 Y131.769 E7.34430
G1 X75.517 Y131.590 E7.36222
G1 X74.976 Y131.384 E7.38013
G1 X74.445 Y131.152 E7.39805
G1 X73.926 Y130.893 E7.41600
G1 X73.422 Y130.609 E7.43391
G1 X72.930 Y130.299 E7.45190
G1 X72.456 Y129.966 E7.46982
G1 X72.000 Y129.610 E7.48774
G1 X71.561 Y129.230 E7.50569
G1 X71.141 Y128.830 E7.52363
G1 X70.743 Y128.409 E7.54156
G1 X70.365 Y127.969 E7.55949
G1 X70.010 Y127.511 E7.57743
G1 X69.679 Y127.036 E7.59536
G1 X69.371 Y126.545 E7.61329
G1 X69.089 Y126.039 E7.63123
G1 X68.832 Y125.519 E7.64916
G1 X68.601 Y124.988 E7.66709
G1 X68.397 Y124.445 E7.68503
G1 X68.220 Y123.893 E7.70296
G1 X68.071 Y123.333 E7.72089
G1 X67.950 Y122.766 E7.73883
G1 X67.857 Y122.194 E7.75676
G1 X67.793 Y121.618 E7.77469
G1 X67.750 Y120.625 E7.80544
G1 X67.750 Y79.380 E9.08162
G1 X67.772 Y78.670 E9.10359
G1 X67.822 Y78.093 E9.12152
G1 X67.899 Y77.528 E9.13916
G1 X68.080 Y76.628 E9.16758
G1 X68.305 Y75.829 E9.19324
G1 X68.495 Y75.283 E9.21115
G1 X68.713 Y74.745 E9.22909
G1 X69.108 Y73.926 E9.25724
G1 X69.392 Y73.421 E9.27517
G1 X69.701 Y72.930 E9.29311
G1 X70.034 Y72.456 E9.31104
G1 X70.391 Y71.999 E9.32897
G1 X70.770 Y71.561 E9.34690
G1 X71.118 Y71.195 E9.36252
G1 E7.36252 F2400.00000
G92 E0
G1 X114.494 Y114.989 F7800.000
G1 E2.00000 F2400.00000
G1 F1800
G1 X113.941 Y115.504 E2.02338
G1 X112.848 Y116.422 E2.06755
G1 X112.244 Y116.876 E2.09093
G1 X111.049 Y117.682 E2.13553
G1 X109.789 Y118.410 E2.18056
G1 X108.493 Y119.042 E2.22516
G1 X107.798 Y119.337 E2.24854
G1 X106.459 Y119.824 E2.29261
G1 X105.747 Y120.042 E2.31565
G1 X105.031 Y120.234 E2.33861
G1 X103.624 Y120.533 E2.38311
G1 X102.180 Y120.737 E2.42823
G1 X100.745 Y120.837 E2.47274
G1 X99.986 Y120.850 E2.49621
G1 X98.559 Y120.800 E2.54038
G1 X97.807 Y120.735 E2.56377
G1 X96.379 Y120.534 E2.60836
G1 X94.969 Y120.234 E2.65296
G1 X94.253 Y120.042 E2.67591
G1 X93.544 Y119.825 E2.69886
G1 X92.202 Y119.337 E2.74303
G1 X91.507 Y119.042 E2.76641
G1 X90.211 Y118.410 E2.81101
G1 X88.966 Y117.691 E2.85551
G1 X88.329 Y117.278 E2.87899
G1 X87.163 Y116.431 E2.92359
G1 X86.059 Y115.504 E2.96819
G1 X85.506 Y114.989 E2.99157
G1 X84.515 Y113.962 E3.03574
G1 X84.028 Y113.402 E3.05869
G1 X83.559 Y112.823 E3.08173
G1 X82.714 Y111.660 E3.12624
G1 X81.950 Y110.437 E3.17083
G1 X81.584 Y109.776 E3.19422
G1 X80.958 Y108.493 E3.23838
G1 X80.663 Y107.798 E3.26176
G1 X80.175 Y106.456 E3.30593
G1 X79.954 Y105.734 E3.32931
G1 X79.608 Y104.349 E3.37348
G1 X79.464 Y103.607 E3.39686
G1 X79.265 Y102.193 E3.44103
G1 X79.200 Y101.441 E3.46441
G1 X79.149 Y100.000 E3.50901
G1 X79.200 Y98.559 E3.55361
G1 X79.265 Y97.807 E3.57699
G1 X79.467 Y96.376 E3.62168
G1 X79.766 Y94.969 E3.66619
G1 X79.958 Y94.253 E3.68914
G1 X80.176 Y93.541 E3.71218
G1 X80.663 Y92.202 E3.75625
G1 X80.958 Y91.507 E3.77963
G1 X81.584 Y90.224 E3.82380
G1 X81.952 Y89.560 E3.84728
G1 X82.714 Y88.340 E3.89178
G1 X83.571 Y87.161 E3.93691
G1 X84.496 Y86.059 E3.98141
G1 X85.002 Y85.516 E4.00436
G1 X85.526 Y84.992 E4.02731
G1 X86.587 Y84.037 E4.07148
G1 X87.174 Y83.561 E4.09486
G1 X88.338 Y82.716 E4.13936
G1 X89.575 Y81.943 E4.18449
G1 X90.847 Y81.266 E4.22909
G1 X91.520 Y80.953 E4.25204
G1 X92.202 Y80.663 E4.27499
G1 X93.557 Y80.170 E4.31959
G1 X94.942 Y79.772 E4.36418
G1 X95.665 Y79.606 E4.38713
G1 X96.393 Y79.464 E4.41008
G1 X97.807 Y79.265 E4.45425
G1 X98.559 Y79.200 E4.47763
G1 X99.997 Y79.149 E4.52214
G1 X101.440 Y79.200 E4.56683
G1 X102.193 Y79.265 E4.59021
G1 X103.607 Y79.464 E4.63438
G1 X104.349 Y79.608 E4.65776
G1 X105.734 Y79.954 E4.70193
G1 X106.456 Y80.175 E4.72531
G1 X107.798 Y80.663 E4.76947
G1 X108.493 Y80.958 E4.79286
G1 X109.776 Y81.584 E4.83702
G1 X110.437 Y81.950 E4.86041
G1 X111.660 Y82.714 E4.90500
G1 X112.826 Y83.561 E4.94960
G1 X113.413 Y84.037 E4.97299
G1 X114.486 Y85.003 E5.01768
G1 X115.485 Y86.038 E5.06218
G1 X115.981 Y86.608 E5.08556
G1 X116.860 Y87.733 E5.12973
G1 X117.286 Y88.341 E5.15268
G1 X117.691 Y88.966 E5.17573
G1 X118.410 Y90.211 E5.22023
G1 X119.042 Y91.507 E5.26483
G1 X119.337 Y92.202 E5.28821
G1 X119.825 Y93.544 E5.33238
G1 X120.042 Y94.253 E5.35533
G1 X120.234 Y94.969 E5.37828
G1 X120.534 Y96.379 E5.42287
G1 X120.735 Y97.807 E5.46747
G1 X120.800 Y98.559 E5.49086
G1 X120.850 Y99.986 E5.53503
G1 X120.837 Y100.745 E5.55850
G1 X120.737 Y102.180 E5.60300
G1 X120.536 Y103.607 E5.64760
G1 X120.392 Y104.349 E5.67098
G1 X120.046 Y105.734 E5.71515
G1 X119.825 Y106.456 E5.73853
G1 X119.337 Y107.798 E5.78270
G1 X119.042 Y108.493 E5.80608
G1 X118.416 Y109.776 E5.85025
G1 X118.057 Y110.425 E5.87320
G1 X117.673 Y111.063 E5.89624
G1 X116.876 Y112.244 E5.94032
G1 X116.420 Y112.850 E5.96379
G1 X115.495 Y113.952 E6.00829
G1 X114.546 Y114.935 E6.05057
G1 X114.056 Y114.543 F7800.000
G1 F1800
G1 X113.527 Y115.036 E6.07294
G1 X112.459 Y115.932 E6.11609
G1 X111.881 Y116.368 E6.13846
G1 X110.718 Y117.152 E6.18188
G1 X109.495 Y117.858 E6.22556
G1 X108.234 Y118.473 E6.26898
G1 X107.569 Y118.756 E6.29135
G1 X106.261 Y119.232 E6.33441
G1 X105.575 Y119.442 E6.35661
G1 X104.885 Y119.626 E6.37871
G1 X103.515 Y119.918 E6.42204
G1 X102.114 Y120.115 E6.46581
G1 X100.717 Y120.212 E6.50913
G1 X99.992 Y120.225 E6.53160
G1 X98.598 Y120.177 E6.57475
G1 X97.877 Y120.114 E6.59712
G1 X96.488 Y119.918 E6.64054
G1 X95.115 Y119.626 E6.68396
G1 X94.425 Y119.442 E6.70606
G1 X93.742 Y119.233 E6.72817
G1 X92.431 Y118.756 E6.77132
G1 X91.766 Y118.473 E6.79369
G1 X90.505 Y117.858 E6.83711
G1 X89.292 Y117.158 E6.88043
G1 X88.683 Y116.763 E6.90289
G1 X87.548 Y115.938 E6.94631
G1 X86.473 Y115.036 E6.98973
G1 X85.944 Y114.543 E7.01210
G1 X84.975 Y113.540 E7.05525
G1 X84.507 Y113.000 E7.07736
G1 X84.055 Y112.443 E7.09956
G1 X83.232 Y111.310 E7.14288
G1 X82.489 Y110.120 E7.18630
G1 X82.138 Y109.488 E7.20867
G1 X81.527 Y108.234 E7.25182
G1 X81.244 Y107.569 E7.27419
G1 X80.767 Y106.258 E7.31735
G1 X80.556 Y105.567 E7.33972
G1 X80.219 Y104.213 E7.38287
G1 X80.081 Y103.504 E7.40524
G1 X79.886 Y102.123 E7.44839
G1 X79.823 Y101.402 E7.47076
G1 X79.775 Y100.000 E7.51418
G1 X79.823 Y98.598 E7.55760
G1 X79.887 Y97.877 E7.57997
G1 X80.082 Y96.485 E7.62348
G1 X80.374 Y95.115 E7.66680
G1 X80.558 Y94.425 E7.68891
G1 X80.768 Y93.739 E7.71111
G1 X81.244 Y92.431 E7.75417
G1 X81.527 Y91.766 E7.77653
G1 X82.138 Y90.512 E7.81969
G1 X82.490 Y89.877 E7.84215
G1 X83.232 Y88.690 E7.88548
G1 X84.064 Y87.546 E7.92925
G1 X84.964 Y86.473 E7.97257
G1 X85.957 Y85.445 E8.01678
G1 X86.993 Y84.512 E8.05993
G1 X87.555 Y84.057 E8.08230
G1 X88.688 Y83.234 E8.12563
G1 X89.887 Y82.484 E8.16940
G1 X91.126 Y81.825 E8.21282
G1 X92.431 Y81.244 E8.25702
G1 X93.750 Y80.764 E8.30044
G1 X95.099 Y80.378 E8.34386
G1 X96.496 Y80.081 E8.38806
G1 X97.877 Y79.886 E8.43122
G1 X98.598 Y79.823 E8.45358
G1 X99.997 Y79.775 E8.49691
G1 X101.402 Y79.823 E8.54042
G1 X102.123 Y79.886 E8.56279
G1 X103.504 Y80.081 E8.60594
G1 X104.213 Y80.219 E8.62831
G1 X105.567 Y80.556 E8.67147
G1 X106.258 Y80.767 E8.69384
G1 X107.569 Y81.244 E8.73699
G1 X108.234 Y81.527 E8.75936
G1 X109.488 Y82.138 E8.80251
G1 X110.120 Y82.489 E8.82488
G1 X111.310 Y83.232 E8.86830
G1 X112.445 Y84.057 E8.91172
G1 X113.007 Y84.512 E8.93409
G1 X114.052 Y85.453 E8.97760
G1 X115.025 Y86.460 E9.02092
G1 X115.499 Y87.006 E9.04329
G1 X116.358 Y88.105 E9.08644
G1 X116.767 Y88.690 E9.10855
G1 X117.158 Y89.292 E9.13075
G1 X117.858 Y90.505 E9.17407
G1 X118.473 Y91.766 E9.21749
G1 X118.756 Y92.431 E9.23986
G1 X119.233 Y93.742 E9.28301
G1 X119.626 Y95.115 E9.32722
G1 X119.918 Y96.488 E9.37064
G1 X120.114 Y97.877 E9.41405
G1 X120.177 Y98.598 E9.43642
G1 X120.225 Y99.992 E9.47958
G1 X120.212 Y100.717 E9.50204
G1 X120.115 Y102.114 E9.54536
G1 X119.919 Y103.504 E9.58878
G1 X119.781 Y104.213 E9.61115
G1 X119.444 Y105.567 E9.65430
G1 X119.233 Y106.258 E9.67667
G1 X118.756 Y107.569 E9.71983
G1 X118.473 Y108.234 E9.74220
G1 X117.862 Y109.488 E9.78535
G1 X117.515 Y110.113 E9.80746
G1 X117.146 Y110.727 E9.82966
G1 X116.367 Y111.881 E9.87272
G1 X115.931 Y112.461 E9.89518
G1 X115.030 Y113.534 E9.93850
G1 X114.108 Y114.489 E9.97960
G1 X113.618 Y114.097 F7800.000
G1 F1800
G1 X113.113 Y114.568 E10.00096
G1 X112.069 Y115.443 E10.04310
G1 X111.518 Y115.859 E10.06445
G1 X110.387 Y116.622 E10.10669
G1 X109.202 Y117.306 E10.14902
G1 X107.975 Y117.904 E10.19125
G1 X107.340 Y118.174 E10.21261
G1 X106.062 Y118.639 E10.25466
G1 X105.403 Y118.841 E10.27601
G1 X104.739 Y119.019 E10.29728
G1 X103.406 Y119.302 E10.33942
G1 X102.049 Y119.493 E10.38184
G1 X100.690 Y119.588 E10.42399
G1 X99.997 Y119.600 E10.44543
G1 X98.636 Y119.553 E10.48758
G1 X97.948 Y119.492 E10.50893
G1 X96.596 Y119.302 E10.55117
G1 X95.261 Y119.019 E10.59340
G1 X94.597 Y118.841 E10.61467
G1 X93.940 Y118.640 E10.63593
G1 X92.661 Y118.174 E10.67807
G1 X92.025 Y117.904 E10.69943
G1 X90.798 Y117.306 E10.74166
G1 X89.619 Y116.625 E10.78381
G1 X89.037 Y116.248 E10.80525
G1 X87.933 Y115.445 E10.84749
G1 X86.887 Y114.568 E10.88973
G1 X86.382 Y114.097 E10.91108
G1 X85.436 Y113.117 E10.95322
G1 X84.985 Y112.599 E10.97449
G1 X84.551 Y112.062 E10.99584
G1 X83.751 Y110.960 E11.03799
G1 X83.027 Y109.803 E11.08022
G1 X82.693 Y109.199 E11.10158
G1 X82.096 Y107.975 E11.14372
G1 X81.826 Y107.339 E11.16508
G1 X81.360 Y106.060 E11.20722
G1 X81.158 Y105.400 E11.22857
G1 X80.829 Y104.078 E11.27071
G1 X80.697 Y103.401 E11.29207
G1 X80.508 Y102.052 E11.33421
G1 X80.447 Y101.364 E11.35557
G1 X80.400 Y100.000 E11.39781
G1 X80.447 Y98.636 E11.44004
G1 X80.508 Y97.948 E11.46140
G1 X80.698 Y96.594 E11.50373
G1 X80.981 Y95.261 E11.54587
G1 X81.361 Y93.938 E11.58848
G1 X81.826 Y92.660 E11.63053
G1 X82.096 Y92.025 E11.65189
G1 X82.693 Y90.801 E11.69403
G1 X83.029 Y90.195 E11.71548
G1 X83.751 Y89.040 E11.75762
G1 X84.557 Y87.931 E11.80004
G1 X85.432 Y86.887 E11.84218
G1 X86.387 Y85.899 E11.88470
G1 X87.399 Y84.987 E11.92684
G1 X87.935 Y84.553 E11.94820
G1 X89.037 Y83.752 E11.99034
G1 X90.200 Y83.026 E12.03277
G1 X91.405 Y82.385 E12.07500
G1 X92.661 Y81.826 E12.11752
G1 X93.943 Y81.359 E12.15976
G1 X95.255 Y80.983 E12.20199
G1 X95.925 Y80.828 E12.22325
G1 X96.599 Y80.697 E12.24452
G1 X97.948 Y80.508 E12.28666
G1 X98.636 Y80.447 E12.30801
G1 X99.997 Y80.400 E12.35016
G1 X101.364 Y80.447 E12.39248
G1 X102.052 Y80.508 E12.41384
G1 X103.401 Y80.697 E12.45598
G1 X104.078 Y80.829 E12.47734
G1 X105.400 Y81.158 E12.51948
G1 X106.060 Y81.360 E12.54084
G1 X107.339 Y81.826 E12.58298
G1 X107.975 Y82.096 E12.60434
G1 X109.199 Y82.693 E12.64648
G1 X109.803 Y83.027 E12.66783
G1 X110.960 Y83.751 E12.71007
G1 X112.065 Y84.553 E12.75231
G1 X112.601 Y84.987 E12.77366
G1 X113.618 Y85.903 E12.81599
G1 X114.564 Y86.883 E12.85813
G1 X115.017 Y87.404 E12.87949
G1 X115.855 Y88.477 E12.92163
G1 X116.249 Y89.040 E12.94290
G1 X116.625 Y89.619 E12.96425
G1 X117.306 Y90.798 E13.00639
G1 X117.904 Y92.025 E13.04863
G1 X118.174 Y92.661 E13.06999
G1 X118.640 Y93.940 E13.11213
G1 X119.019 Y95.261 E13.15464
G1 X119.302 Y96.596 E13.19688
G1 X119.492 Y97.948 E13.23912
G1 X119.553 Y98.636 E13.26047
G1 X119.600 Y99.997 E13.30261
G1 X119.588 Y100.690 E13.32406
G1 X119.493 Y102.049 E13.36621
G1 X119.303 Y103.401 E13.40844
G1 X119.171 Y104.078 E13.42980
G1 X118.842 Y105.400 E13.47194
G1 X118.640 Y106.060 E13.49330
G1 X118.174 Y107.339 E13.53544
G1 X117.904 Y107.975 E13.55679
G1 X117.307 Y109.199 E13.59894
G1 X116.619 Y110.392 E13.64155
G1 X115.859 Y111.518 E13.68360
G1 X115.441 Y112.072 E13.70504
G1 X114.566 Y113.115 E13.74719
G1 X113.670 Y114.043 E13.78710
G1 X113.618 Y114.097 F7800.000
G1 E11.78710 F2400.00000
G92 E0
G1 X113.617 Y124.025 F7800.000
G1 E2.00000 F2400.00000
G1 F1800
G1 X79.310 Y124.024 E3.06150
G1 X78.952 Y123.997 E3.07260
G1 X78.639 Y123.942 E3.08247
G1 X78.115 Y123.780 E3.09941
G1 X77.808 Y123.641 E3.10985
G1 X77.392 Y123.384 E3.12498
G1 X77.126 Y123.173 E3.13548
G1 X76.884 Y122.936 E3.14596
G1 X76.666 Y122.677 E3.15644
G1 X76.475 Y122.397 E3.16692
G1 X76.313 Y122.099 E3.17740
G1 X76.182 Y121.787 E3.18789
G1 X76.088 Y121.482 E3.19776
G1 X75.994 Y120.951 E3.21447
G1 X75.975 Y120.584 E3.22582
G1 X75.976 Y79.310 E4.50289
G1 X76.003 Y78.952 E4.51400
G1 X76.064 Y78.606 E4.52488
G1 X76.212 Y78.133 E4.54019
G1 X76.351 Y77.824 E4.55069
G1 X76.604 Y77.406 E4.56582
G1 X76.827 Y77.126 E4.57688
G1 X77.064 Y76.884 E4.58736
G1 X77.323 Y76.666 E4.59784
G1 X77.603 Y76.475 E4.60832
G1 X77.901 Y76.313 E4.61881
G1 X78.213 Y76.182 E4.62929
G1 X78.536 Y76.082 E4.63977
G1 X78.869 Y76.015 E4.65025
G1 X79.206 Y75.981 E4.66074
G1 X120.594 Y75.976 E5.94134
G1 X120.873 Y75.985 E5.94997
G1 X121.215 Y76.028 E5.96065
G1 X121.545 Y76.104 E5.97113
G1 X121.848 Y76.205 E5.98100
G1 X122.341 Y76.443 E5.99794
G1 X122.609 Y76.616 E6.00780
G1 X122.874 Y76.827 E6.01829
G1 X123.116 Y77.064 E6.02877
G1 X123.334 Y77.323 E6.03925
G1 X123.525 Y77.603 E6.04974
G1 X123.693 Y77.912 E6.06062
G1 X123.872 Y78.373 E6.07593
G1 X123.956 Y78.702 E6.08642
G1 X124.006 Y79.037 E6.09690
G1 X124.025 Y79.415 E6.10861
G1 X124.024 Y120.690 E7.38571
G1 X123.997 Y121.048 E7.39682
G1 X123.942 Y121.361 E7.40668
G1 X123.780 Y121.885 E7.42362
G1 X123.649 Y122.175 E7.43349
G1 X123.490 Y122.451 E7.44335
G1 X123.159 Y122.888 E7.46029
G1 X122.936 Y123.116 E7.47016
